icons/drive-fill.svg

<svg viewBox="0 0 24 24" fill="currentColor" xmlns="http://www.w3.org/2000/svg"><path d="M7.94037 4.14596L11.4217 10.1759L5.48201 20.4688L2 14.44L7.94037 4.14596ZM10.1161 14.44H22L18.518 20.4688H6.63537L10.1161 14.44ZM14.4589 13.4399L8.51799 3.14502H15.482L21.4229 13.4399H14.4589Z"/></svg>

<svg xmlns="http://www.w3.org/2000/svg" viewBox="0 0 24 24">
    <g>
        <path fill="none" d="M0 0h24v24H0z"/>
        <path d="M7.94 4.146l3.482 6.03-5.94 10.293L2 14.44 7.94 4.146zm2.176 10.294H22l-3.482 6.029H6.635l3.481-6.029zm4.343-1L8.518 3.145h6.964l5.94 10.295H14.46z"/>
    </g>
</svg>
